icons/bug-line.svg

<svg xmlns="http://www.w3.org/2000/svg" width="24" height="24" fill="none"><g clip-path="url(#a)"><g><path fill="#121212" d="M13 19.9C14.1292 19.6691 15.144 19.0554 15.8729 18.1625C16.6017 17.2697 16.9999 16.1526 17 15V12C17.0013 11.3118 16.86 10.6308 16.585 10H7.415C7.13996 10.6308 6.99866 11.3118 7 12V15C7.00014 16.1526 7.3983 17.2697 8.12714 18.1625C8.85599 19.0554 9.87081 19.6691 11 19.9V14H13V19.9ZM5.536 17.69C5.18115 16.8376 4.99897 15.9233 5 15H2V13H5V12C5 11.357 5.087 10.735 5.249 10.144L3.036 8.866L4.036 7.134L6.056 8.3C6.11975 8.19831 6.18611 8.09828 6.255 8H17.745C17.814 8.098 17.88 8.199 17.944 8.3L19.964 7.134L20.964 8.866L18.751 10.144C18.913 10.734 19 11.357 19 12V13H22V15H19C19 15.953 18.81 16.862 18.464 17.69L20.964 19.134L19.964 20.866L17.438 19.408C16.7824 20.2184 15.9537 20.8718 15.0127 21.3203C14.0718 21.7688 13.0424 22.001 12 22C10.9576 22.001 9.92822 21.7688 8.98726 21.3203C8.0463 20.8718 7.21763 20.2184 6.562 19.408L4.036 20.866L3.036 19.134L5.536 17.691V17.69ZM8 6C8 4.93913 8.42143 3.92172 9.17157 3.17157C9.92172 2.42143 10.9391 2 12 2C13.0609 2 14.0783 2.42143 14.8284 3.17157C15.5786 3.92172 16 4.93913 16 6H8Z"/></g></g><defs><clipPath id="a"><rect width="24" height="24" fill="white"/></clipPath></defs></svg>

<svg width="24" height="24" fill="none" xmlns="http://www.w3.org/2000/svg"><g clip-path="url(#a)"><path d="M13 19.9a5.002 5.002 0 0 0 4-4.9v-3a4.981 4.981 0 0 0-.415-2h-9.17A4.98 4.98 0 0 0 7 12v3a5.002 5.002 0 0 0 4 4.9V14h2v5.9Zm-7.464-2.21A6.979 6.979 0 0 1 5 15H2v-2h3v-1c0-.643.087-1.265.249-1.856L3.036 8.866l1-1.732L6.056 8.3c.064-.102.13-.202.199-.3h11.49c.069.098.135.199.199.3l2.02-1.166 1 1.732-2.213 1.278c.162.59.249 1.213.249 1.856v1h3v2h-3a6.96 6.96 0 0 1-.536 2.69l2.5 1.444-1 1.732-2.526-1.458A6.985 6.985 0 0 1 12 22a6.986 6.986 0 0 1-5.438-2.592l-2.526 1.458-1-1.732 2.5-1.443v-.001ZM8 6a4 4 0 0 1 8 0H8Z" /></g><defs><clipPath id="a"><path fill="#fff" d="M0 0h24v24H0z"/></clipPath></defs></svg>
